modules/feathericon/icons/document.svg

<?xml version="1.0" encoding="UTF-8"?>
<svg width="10px" height="14px" viewBox="0 0 10 14" version="1.1" xmlns="http://www.w3.org/2000/svg" xmlns:xlink="http://www.w3.org/1999/xlink">
    <!-- Generator: sketchtool 48.1 (47250) - http://www.bohemiancoding.com/sketch -->
    <title>document</title>
    <desc>Created with sketchtool.</desc>
    <defs></defs>
    <g id="file-types" stroke="none" stroke-width="1" fill="none" fill-rule="evenodd">
        <g id="document" fill="#000000">
            <path d="M1,12.9931545 C1,12.9998968 9.00460243,13 9.00460243,13 C8.9970214,13 9,4 9,4 L6,4 L6,1 L0.995397568,1 C1.00550487,1 1,12.9931545 1,12.9931545 Z M0,1.00684547 C0,0.450780073 0.455664396,0 0.995397568,0 L7.5,0 L10,2.5 L10,12.9931545 C10,13.5492199 9.5443356,14 9.00460243,14 L0.995397568,14 C0.445654671,14 0,13.5500512 0,12.9931545 L0,1.00684547 Z M2,10 L8,10 L8,11 L2,11 L2,10 Z M2,8 L8,8 L8,9 L2,9 L2,8 Z M2,6 L8,6 L8,7 L2,7 L2,6 Z M7,1 L9,3 L7,3 L7,1 Z" id="Shape"></path>
        </g>
    </g>
</svg>

<svg width="10" height="14" xmlns="http://www.w3.org/2000/svg"><path d="M1 12.993C1 13 9.005 13 9.005 13 8.997 13 9 4 9 4H6V1H.995C1.005 1 1 12.993 1 12.993zM0 1.007C0 .45.456 0 .995 0H7.5L10 2.5v10.493C10 13.55 9.544 14 9.005 14H.995A1 1 0 0 1 0 12.993V1.007zM2 10h6v1H2v-1zm0-2h6v1H2V8zm0-2h6v1H2V6zm5-5l2 2H7V1z" fill="#000" fill-rule="evenodd"/></svg>
